picto/bike-hire-right-fr.svg

<svg class="color-immutable" width="24" height="24" viewBox="0 0 24 24" fill="none" xmlns="http://www.w3.org/2000/svg"><path d="M0 22.5V1.5C0 0.675 0.675 0 1.5 0H22.5C23.325 0 24 0.675 24 1.5V22.5C24 23.325 23.325 24 22.5 24H1.5C0.675 24 0 23.325 0 22.5Z" fill="#2D327D"/><path d="M4.59 4.833V5.248H3V3H3.491V4.833H4.59Z" fill="white"/><path d="M5.622 3.52299C5.866 3.52299 6.065 3.604 6.22 3.766C6.373 3.926 6.449 4.139 6.449 4.406C6.449 4.682 6.367 4.90199 6.204 5.06599C6.053 5.21799 5.854 5.295 5.609 5.295C5.348 5.295 5.139 5.20999 4.985 5.03999C4.836 4.87699 4.763 4.66699 4.763 4.40899C4.763 4.15499 4.835 3.948 4.978 3.789C5.137 3.612 5.352 3.52299 5.622 3.52299ZM5.599 3.871C5.481 3.871 5.387 3.91899 5.318 4.01399C5.247 4.10999 5.212 4.24199 5.212 4.40899C5.212 4.58199 5.247 4.715 5.317 4.807C5.389 4.9 5.487 4.947 5.611 4.947C5.727 4.947 5.819 4.90399 5.886 4.81899C5.963 4.72499 6.001 4.588 6.001 4.40799C6.001 4.24 5.967 4.10899 5.899 4.01599C5.829 3.91899 5.729 3.871 5.599 3.871Z" fill="white"/><path d="M8.299 4.604C8.277 4.771 8.221 4.911 8.131 5.023C7.985 5.204 7.78 5.295 7.514 5.295C7.241 5.295 7.029 5.202 6.877 5.015C6.749 4.856 6.685 4.66 6.685 4.426C6.685 4.137 6.771 3.909 6.942 3.742C7.092 3.596 7.285 3.524 7.522 3.524C7.74 3.524 7.918 3.581 8.054 3.694C8.19 3.807 8.268 3.962 8.288 4.159H7.85C7.833 4.069 7.797 4 7.74 3.951C7.684 3.901 7.613 3.877 7.527 3.877C7.403 3.877 7.307 3.924 7.239 4.018C7.17 4.111 7.136 4.243 7.136 4.412C7.136 4.562 7.163 4.682 7.218 4.773C7.285 4.885 7.385 4.941 7.518 4.941C7.715 4.941 7.83 4.829 7.864 4.604H8.299Z" fill="white"/><path d="M10.087 5.249H9.63202C9.61302 5.183 9.60302 5.12699 9.60302 5.08099C9.46402 5.22399 9.28402 5.295 9.06302 5.295C8.89102 5.295 8.75602 5.255 8.66002 5.175C8.54902 5.083 8.49402 4.95399 8.49402 4.789C8.49402 4.57899 8.58902 4.433 8.77902 4.352C8.85602 4.319 8.99702 4.289 9.20402 4.261C9.38002 4.238 9.49102 4.21499 9.53502 4.19299C9.57802 4.17099 9.60002 4.12599 9.60002 4.05999C9.60002 3.91299 9.50302 3.83999 9.30802 3.83999C9.20402 3.83999 9.12902 3.85799 9.08102 3.89499C9.03302 3.93199 9.00202 3.99599 8.98602 4.08699H8.56502C8.57802 3.90099 8.64802 3.75999 8.77602 3.66499C8.90302 3.56999 9.08402 3.52299 9.31802 3.52299C9.57702 3.52299 9.76902 3.57599 9.89302 3.68099C9.95002 3.72999 9.98902 3.78299 10.008 3.83899C10.027 3.89499 10.036 3.98499 10.036 4.10699C10.036 4.13299 10.034 4.245 10.031 4.445C10.029 4.647 10.028 4.763 10.028 4.793C10.028 4.915 10.032 5.00399 10.039 5.06099C10.046 5.11799 10.063 5.181 10.087 5.249ZM9.59702 4.438C9.53902 4.474 9.43502 4.50199 9.28302 4.52299C9.17602 4.53899 9.10002 4.55999 9.05202 4.58599C8.98502 4.62199 8.95202 4.683 8.95202 4.769C8.95202 4.839 8.97402 4.893 9.01802 4.932C9.06302 4.971 9.12402 4.98999 9.20302 4.98999C9.33402 4.98999 9.44002 4.944 9.52102 4.852C9.55002 4.82 9.57002 4.78699 9.58102 4.75299C9.59202 4.71899 9.59702 4.673 9.59702 4.617V4.438Z" fill="white"/><path d="M11.286 3.566V3.881H10.952V4.67C10.952 4.764 10.961 4.824 10.978 4.85C11.004 4.887 11.061 4.905 11.15 4.905C11.185 4.905 11.23 4.902 11.285 4.897V5.254C11.185 5.265 11.092 5.271 11.008 5.271C10.881 5.271 10.784 5.257 10.717 5.228C10.613 5.182 10.549 5.098 10.523 4.976C10.512 4.924 10.506 4.816 10.506 4.651V3.881H10.234V3.566H10.506V3.172H10.951V3.566H11.286Z" fill="white"/><path d="M11.989 3V3.401H11.543V3H11.989ZM11.989 3.572V5.249H11.543V3.572H11.989Z" fill="white"/><path d="M13.15 3.52299C13.394 3.52299 13.593 3.604 13.748 3.766C13.901 3.926 13.977 4.139 13.977 4.406C13.977 4.682 13.895 4.90199 13.732 5.06599C13.579 5.21899 13.38 5.295 13.135 5.295C12.874 5.295 12.665 5.20999 12.511 5.03999C12.363 4.878 12.29 4.66799 12.29 4.40899C12.29 4.15499 12.362 3.948 12.505 3.789C12.664 3.612 12.879 3.52299 13.15 3.52299ZM13.127 3.871C13.009 3.871 12.915 3.91899 12.846 4.01399C12.775 4.10999 12.74 4.24199 12.74 4.40899C12.74 4.58199 12.775 4.715 12.845 4.807C12.917 4.9 13.015 4.947 13.139 4.947C13.255 4.947 13.347 4.90399 13.414 4.81899C13.491 4.72499 13.529 4.588 13.529 4.40799C13.529 4.24 13.495 4.10899 13.427 4.01599C13.356 3.91899 13.256 3.871 13.127 3.871Z" fill="white"/><path d="M14.693 3.574V3.809C14.745 3.737 14.794 3.684 14.839 3.651C14.95 3.565 15.083 3.522 15.239 3.522C15.376 3.522 15.493 3.557 15.588 3.627C15.664 3.682 15.717 3.752 15.747 3.837C15.777 3.922 15.792 4.041 15.792 4.195V5.25H15.347V4.287C15.347 4.179 15.338 4.1 15.319 4.05C15.302 4.006 15.272 3.971 15.23 3.945C15.182 3.917 15.127 3.903 15.065 3.903C14.997 3.903 14.936 3.919 14.88 3.952C14.825 3.985 14.784 4.029 14.757 4.086C14.727 4.15 14.712 4.249 14.712 4.383V5.247H14.266V3.574H14.693Z" fill="white"/><path d="M10.015 11.795L8.20399 12.428C8.16499 12.443 8.12199 12.449 8.07999 12.449C7.95499 12.449 7.83899 12.387 7.76899 12.283L7.36299 11.68C7.32999 11.63 7.31299 11.571 7.31299 11.513C7.31299 11.347 7.44699 11.212 7.61199 11.212H9.91599C10.082 11.212 10.217 11.347 10.217 11.513C10.217 11.64 10.135 11.754 10.015 11.795Z" fill="white"/><path d="M16.351 11.812H13.725V11.212H16.351C16.516 11.212 16.65 11.346 16.65 11.512C16.65 11.678 16.516 11.812 16.351 11.812Z" fill="white"/><path d="M16.35 12.787H15.975C15.81 12.787 15.675 12.653 15.675 12.487C15.675 12.321 15.81 12.187 15.975 12.187H16.35C16.515 12.187 16.649 12.321 16.649 12.487C16.65 12.653 16.516 12.787 16.35 12.787Z" fill="white"/><path d="M6.675 13.649C4.646 13.649 3 15.295 3 17.325C3 19.353 4.646 21 6.675 21C8.574 21 10.161 19.553 10.334 17.662H11.116C11.277 18.005 11.621 18.225 12 18.225C12.537 18.225 12.974 17.788 12.974 17.25C12.974 17.031 12.901 16.819 12.765 16.648L14.731 13.725L15.134 14.373C14.199 15.068 13.649 16.161 13.649 17.325C13.649 19.353 15.295 21 17.323 21C19.354 21 21 19.353 21 17.325C21 15.295 19.354 13.649 17.325 13.649C16.741 13.649 16.165 13.788 15.645 14.056L14.925 12.9H9.075L8.355 14.056C7.836 13.789 7.26 13.649 6.675 13.649ZM14.25 17.325C14.25 16.369 14.695 15.467 15.453 14.885L17.07 17.483C17.125 17.571 17.22 17.625 17.324 17.625C17.49 17.625 17.624 17.49 17.624 17.325C17.624 17.268 17.608 17.214 17.58 17.166L15.963 14.567C16.387 14.358 16.852 14.249 17.325 14.249C19.022 14.249 20.401 15.626 20.401 17.324C20.401 19.021 19.023 20.399 17.325 20.399C15.628 20.4 14.25 19.022 14.25 17.325ZM11.732 16.312L9.84 13.5H14.16L12.269 16.312C12.182 16.287 12.092 16.275 12.002 16.275C11.909 16.275 11.819 16.287 11.732 16.312ZM10.341 17.062C10.264 15.993 9.725 15.011 8.865 14.372L9.269 13.724L11.234 16.647C11.138 16.768 11.073 16.911 11.044 17.062H10.341ZM8.547 14.885C9.232 15.411 9.665 16.201 9.739 17.062H7.192L8.547 14.885ZM6.675 20.4C4.978 20.4 3.601 19.022 3.601 17.325C3.601 15.627 4.978 14.25 6.675 14.25C7.148 14.25 7.614 14.359 8.038 14.568L6.695 16.726C6.69 16.725 6.682 16.725 6.676 16.725C6.345 16.725 6.077 16.994 6.077 17.326C6.077 17.656 6.345 17.926 6.676 17.926C6.875 17.926 7.06 17.828 7.172 17.663H9.733C9.56 19.22 8.243 20.4 6.675 20.4Z" fill="white"/></svg>

<svg class="color-immutable" width="24" height="24" viewBox="0 0 24 24" fill="none" xmlns="http://www.w3.org/2000/svg"><g clip-path="url(#a)"><path d="M0 22.5v-21C0 .675.675 0 1.5 0h21c.825 0 1.5.675 1.5 1.5v21c0 .825-.675 1.5-1.5 1.5h-21C.675 24 0 23.325 0 22.5Z" fill="#2D327D"/><path d="M4.59 4.833v.415H3V3h.491v1.833H4.59ZM5.622 3.523a.79.79 0 0 1 .598.243c.153.16.229.373.229.64 0 .276-.082.496-.245.66a.803.803 0 0 1-.595.229c-.261 0-.47-.085-.624-.255-.149-.163-.222-.373-.222-.631 0-.254.072-.461.215-.62.159-.177.374-.266.644-.266Zm-.023.348a.33.33 0 0 0-.281.143.652.652 0 0 0-.106.395c0 .173.035.306.105.398.072.093.17.14.294.14a.332.332 0 0 0 .275-.128c.077-.094.115-.231.115-.411 0-.168-.034-.299-.102-.392a.347.347 0 0 0-.3-.145ZM8.299 4.604a.827.827 0 0 1-.168.419c-.146.181-.351.272-.617.272-.273 0-.485-.093-.637-.28a.909.909 0 0 1-.192-.589c0-.289.086-.517.257-.684a.795.795 0 0 1 .58-.218c.218 0 .396.057.532.17a.665.665 0 0 1 .234.465H7.85a.348.348 0 0 0-.11-.208.307.307 0 0 0-.213-.074.335.335 0 0 0-.288.141c-.069.093-.103.225-.103.394 0 .15.027.27.082.361a.328.328 0 0 0 .3.168c.197 0 .312-.112.346-.337h.435ZM10.087 5.249h-.455a.629.629 0 0 1-.029-.168.72.72 0 0 1-.54.214c-.172 0-.307-.04-.403-.12a.474.474 0 0 1-.166-.386c0-.21.095-.356.285-.437.077-.033.218-.063.425-.091a1.37 1.37 0 0 0 .331-.068c.043-.022.065-.067.065-.133 0-.147-.097-.22-.292-.22-.104 0-.179.018-.227.055-.048.037-.079.101-.095.192h-.421a.543.543 0 0 1 .211-.422c.127-.095.308-.142.542-.142.259 0 .451.053.575.158a.37.37 0 0 1 .115.158.915.915 0 0 1 .028.268l-.005.338-.003.348c0 .122.004.211.011.268.007.057.024.12.048.188Zm-.49-.811a.875.875 0 0 1-.314.085.742.742 0 0 0-.231.063c-.067.036-.1.097-.1.183 0 .07.022.124.066.163a.272.272 0 0 0 .185.058.403.403 0 0 0 .318-.138.274.274 0 0 0 .06-.099.46.46 0 0 0 .016-.136v-.179ZM11.286 3.566v.315h-.334v.789c0 .094.009.154.026.18.026.037.083.055.172.055.035 0 .08-.003.135-.008v.357c-.1.011-.193.017-.277.017a.762.762 0 0 1-.291-.043.332.332 0 0 1-.194-.252 1.954 1.954 0 0 1-.017-.325v-.77h-.272v-.315h.272v-.394h.445v.394h.335ZM11.989 3v.401h-.446V3h.446Zm0 .572v1.677h-.446V3.572h.446ZM13.15 3.523a.79.79 0 0 1 .598.243c.153.16.229.373.229.64 0 .276-.082.496-.245.66a.807.807 0 0 1-.597.229c-.261 0-.47-.085-.624-.255-.148-.162-.221-.372-.221-.631 0-.254.072-.461.215-.62.159-.177.374-.266.645-.266Zm-.023.348a.33.33 0 0 0-.281.143.652.652 0 0 0-.106.395c0 .173.035.306.105.398.072.093.17.14.294.14a.332.332 0 0 0 .275-.128c.077-.094.115-.231.115-.411 0-.168-.034-.299-.102-.392a.35.35 0 0 0-.3-.145ZM14.693 3.574v.235a.633.633 0 0 1 .546-.287c.137 0 .254.035.349.105a.432.432 0 0 1 .159.21c.03.085.045.204.045.358V5.25h-.445v-.963a.722.722 0 0 0-.028-.237.211.211 0 0 0-.089-.105.321.321 0 0 0-.165-.042.356.356 0 0 0-.185.049.306.306 0 0 0-.123.134.738.738 0 0 0-.045.297v.864h-.446V3.574h.427ZM10.015 11.795l-1.811.633a.374.374 0 0 1-.435-.145l-.406-.603a.3.3 0 0 1 .249-.468h2.304a.3.3 0 0 1 .099.583ZM16.351 11.812h-2.626v-.6h2.626a.3.3 0 0 1 0 .6ZM16.35 12.787h-.375a.3.3 0 0 1 0-.6h.375a.3.3 0 0 1 0 .6ZM6.675 13.649a3.676 3.676 0 0 0 0 7.351 3.674 3.674 0 0 0 3.659-3.338h.782a.975.975 0 1 0 1.649-1.014l1.966-2.923.403.648a3.676 3.676 0 1 0 .511-.317l-.72-1.156h-5.85l-.72 1.156a3.673 3.673 0 0 0-1.68-.407Zm7.575 3.676c0-.956.445-1.858 1.203-2.44l1.617 2.598a.3.3 0 0 0 .554-.158.314.314 0 0 0-.044-.159l-1.617-2.599a3.078 3.078 0 0 1 4.438 2.757 3.075 3.075 0 0 1-6.151.001Zm-2.518-1.013L9.84 13.5h4.32l-1.891 2.812a.967.967 0 0 0-.537 0Zm-1.391.75a3.68 3.68 0 0 0-1.476-2.69l.404-.648 1.965 2.923a.96.96 0 0 0-.19.415h-.703Zm-1.794-2.177a3.078 3.078 0 0 1 1.192 2.177H7.192l1.355-2.177ZM6.675 20.4a3.076 3.076 0 1 1 1.363-5.832l-1.343 2.158-.019-.001a.6.6 0 1 0 .496.938h2.561A3.078 3.078 0 0 1 6.675 20.4Z" fill="#fff"/></g><defs><clipPath id="a"><path fill="#fff" d="M0 0h24v24H0z"/></clipPath></defs></svg>
